public/svg/broker-info-five-active.svg

<svg width="100" height="100" viewBox="0 0 100 100" fill="none" xmlns="http://www.w3.org/2000/svg">
<path d="M23.4583 9.66699C22.2917 9.66699 21.375 10.5837 21.375 11.7503V23.542C21.375 23.542 21.375 23.542 21.375 23.5837C21.375 23.8337 21.4167 24.0837 21.5417 24.3337C21.6667 24.5837 21.7917 24.8337 22 25.0003C22.1667 25.167 22.4167 25.3337 22.625 25.417C22.8333 25.5003 23.0417 25.542 23.2917 25.542H23.4167H35.2083C36.375 25.542 37.2917 24.6253 37.2917 23.4587C37.2917 22.292 36.375 21.3753 35.2083 21.3753H29.0833C35.125 16.917 42.3333 14.5003 49.9583 14.5003C69.4583 14.5003 85.3333 30.3753 85.3333 49.917C85.3333 54.167 84.625 58.2503 83.1667 62.042C82.75 63.1253 83.3333 64.3337 84.375 64.7087C84.625 64.792 84.875 64.8337 85.125 64.8337C85.9583 64.8337 86.75 64.3337 87.0833 63.5003C88.7083 59.2087 89.5 54.6253 89.5 49.8753C89.5 28.042 71.75 10.292 49.9583 10.292C40.9583 10.292 32.4583 13.292 25.5 18.792V11.6253C25.5 10.4587 24.5833 9.54199 23.4167 9.54199L23.4583 9.66699Z" fill="#ffffff"/>
<path d="M15.459 35.2503C14.3757 34.8753 13.209 35.417 12.7923 36.5003C11.2507 40.8337 10.459 45.3337 10.459 49.9587C10.459 71.7503 28.209 89.5003 50.0006 89.5003C58.9173 89.5003 67.4173 86.5003 74.334 81.042V88.2503C74.334 89.417 75.2506 90.3337 76.4173 90.3337C77.584 90.3337 78.5006 89.417 78.5006 88.2503V76.4587C78.5006 76.167 78.459 75.917 78.334 75.667C78.1256 75.167 77.709 74.7503 77.209 74.542C76.959 74.417 76.6673 74.3753 76.4173 74.3753H64.6256C63.459 74.3753 62.5423 75.292 62.5423 76.4587C62.5423 77.6253 63.459 78.542 64.6256 78.542H70.709C64.709 82.917 57.5423 85.3337 49.959 85.3337C30.459 85.3337 14.584 69.4587 14.584 49.9587C14.584 45.8337 15.2923 41.792 16.6673 37.917C17.0423 36.8337 16.5007 35.6253 15.4173 35.2503H15.459Z" fill="#ffffff"/>
<path d="M39.2557 61.8418L40.529 64.9134C42.4973 64.2584 45.704 63.3334 46.6673 63.3334C48.064 63.3334 49.104 63.6801 50.3073 64.0801C51.599 64.5118 53.064 65.0001 55.0006 65.0001C56.9623 65.0001 60.1306 63.4651 60.7456 63.1584L59.254 60.1768C58.0523 60.7768 55.869 61.6668 55.0006 61.6668C53.604 61.6668 52.564 61.3201 51.3606 60.9201C50.069 60.4884 48.604 60.0001 46.6673 60.0001C46.2856 60.0001 45.7906 60.0618 45.239 60.1651C46.1706 58.2501 46.6673 55.9351 46.6673 53.3334H51.6673V50.0001H46.044C45.974 49.8218 45.904 49.6401 45.8357 49.4718C45.4057 48.4201 45.0006 47.4251 45.0006 45.0001C45.0006 42.7184 45.869 40.0001 50.0006 40.0001C53.7073 40.0001 55.0356 43.7118 55.0873 43.8601L58.2473 42.8051C58.164 42.5551 56.1323 36.6667 50.0006 36.6667C43.8556 36.6667 41.6673 40.9717 41.6673 45.0001C41.6673 47.4851 42.0573 48.9168 42.464 50.0001H38.334V53.3334H43.334C43.334 57.4451 41.8473 60.5468 39.2557 61.8418Z" fill="#ffffff"/>
</svg>

<svg xmlns="http://www.w3.org/2000/svg" width="100" height="100" fill="none"><path fill="#fff" d="M23.458 9.667a2.063 2.063 0 0 0-2.083 2.083v11.834c0 .25.042.5.167.75s.25.5.458.666c.167.167.417.334.625.417s.417.125.667.125h11.916a2.063 2.063 0 0 0 2.084-2.083 2.063 2.063 0 0 0-2.084-2.084h-6.125c6.042-4.458 13.25-6.875 20.875-6.875 19.5 0 35.375 15.875 35.375 35.417 0 4.25-.708 8.333-2.166 12.125a2.067 2.067 0 0 0 1.208 2.667q.375.125.75.125c.833 0 1.625-.5 1.958-1.334 1.625-4.291 2.417-8.875 2.417-13.625 0-21.833-17.75-39.583-39.542-39.583-9 0-17.5 3-24.458 8.5v-7.167a2.063 2.063 0 0 0-2.083-2.083zM15.459 35.25a2.104 2.104 0 0 0-2.667 1.25A40 40 0 0 0 10.46 49.96c0 21.791 17.75 39.541 39.542 39.541 8.916 0 17.416-3 24.333-8.458v7.208c0 1.167.917 2.084 2.083 2.084a2.063 2.063 0 0 0 2.084-2.084V76.46a1.7 1.7 0 0 0-.167-.792 2.12 2.12 0 0 0-1.125-1.125 1.8 1.8 0 0 0-.792-.167H64.626a2.063 2.063 0 0 0-2.084 2.084c0 1.166.917 2.083 2.084 2.083h6.083c-6 4.375-13.167 6.792-20.75 6.792-19.5 0-35.375-15.875-35.375-35.375 0-4.125.708-8.167 2.083-12.042.375-1.083-.166-2.292-1.25-2.667z"/><path fill="#fff" d="m39.256 61.842 1.273 3.071c1.968-.655 5.175-1.58 6.138-1.58 1.397 0 2.437.347 3.64.747 1.292.432 2.757.92 4.694.92 1.961 0 5.13-1.535 5.745-1.842l-1.492-2.981c-1.202.6-3.385 1.49-4.253 1.49-1.397 0-2.437-.347-3.64-.747-1.292-.432-2.757-.92-4.694-.92-.381 0-.876.062-1.428.165.932-1.915 1.428-4.23 1.428-6.832h5V50h-5.623c-.07-.178-.14-.36-.208-.528C45.406 48.42 45 47.425 45 45c0-2.282.868-5 5-5 3.706 0 5.035 3.712 5.086 3.86l3.16-1.055c-.083-.25-2.115-6.138-8.246-6.138-6.145 0-8.334 4.305-8.334 8.333 0 2.485.39 3.917.797 5h-4.13v3.333h5c0 4.112-1.487 7.214-4.078 8.509"/></svg>
